icon-themes/breeze_svg/cmd/lc_formproperties.svg

<svg viewBox="0 0 24 24" xmlns="http://www.w3.org/2000/svg"><path d="m4 4v16h1 15v-1-15h-1-14zm1 4h14v11h-14zm1 1v9h5v-9zm6 1v1h6v-1zm0 3v1h4v-1zm0 3v1h2v-1z" fill="#4d4d4d"/></svg>

<svg xmlns="http://www.w3.org/2000/svg" viewBox="0 0 24 24">
 <path 
     style="fill:#4d4d4d" 
     d="M 4 4 L 4 20 L 5 20 L 20 20 L 20 19 L 20 4 L 19 4 L 5 4 L 4 4 z M 5 8 L 19 8 L 19 19 L 5 19 L 5 8 z M 6 9 L 6 18 L 11 18 L 11 9 L 6 9 z M 12 10 L 12 11 L 18 11 L 18 10 L 12 10 z M 12 13 L 12 14 L 16 14 L 16 13 L 12 13 z M 12 16 L 12 17 L 14 17 L 14 16 L 12 16 z "
     />
 </svg>
